svgs/solid/gauge-simple-max.svg

<svg xmlns="http://www.w3.org/2000/svg" viewBox="0 0 512 512"><!--! Font Awesome Pro 6.2.0 by @fontawesome - https://fontawesome.com License - https://fontawesome.com/license (Commercial License) Copyright 2022 Fonticons, Inc. --><path d="M512 256c0 141.4-114.6 256-256 256S0 397.4 0 256S114.6 0 256 0S512 114.6 512 256zM320 352c0-3.7-.3-7.3-.9-10.8l117.5-72.8c11.3-7 14.7-21.8 7.8-33s-21.8-14.8-33-7.8L293.8 300.4C283.2 292.6 270.1 288 256 288c-35.3 0-64 28.7-64 64s28.7 64 64 64s64-28.7 64-64z"/></svg>

<svg xmlns="http://www.w3.org/2000/svg" viewBox="0 0 512 512"><!--! Font Awesome Pro 6.1.2 by @fontawesome - https://fontawesome.com License - https://fontawesome.com/license (Commercial License) Copyright 2022 Fonticons, Inc. --><path d="M512 256C512 397.4 397.4 512 256 512C114.6 512 0 397.4 0 256C0 114.6 114.6 0 256 0C397.4 0 512 114.6 512 256zM319.1 341.2L436.6 268.4C447.9 261.4 451.4 246.6 444.4 235.4C437.4 224.1 422.6 220.6 411.4 227.6L293.8 300.4C283.2 292.6 270.1 288 256 288C220.7 288 192 316.7 192 352C192 387.3 220.7 416 256 416C291.3 416 320 387.3 320 352C320 348.3 319.7 344.7 319.1 341.2L319.1 341.2z"/></svg>
